X: 19952
T: Jiggery Pokerwork
R: jig
M: 6/8
K: Bminor
|:B2c dcB|f2g e3|e2f d2f|fed cdc|
B2c dcB|f2g e3|e2f d2f|fec B3:|
|:f^ef dBf|^efd Bfe|f>dB g>dB|a>e.c b>^ab|
f^ef dBf|^efd Bfe|~=e3 ~a3|fec B3:|

